X:159
T:Contending Orators. JJo8.159
%%VWML:JohnsonVol8-2184-p80-0
F:http://www.vwml.org/record/JohnsonVol8/2184/p80
Z:Transcribed by Simon Furey and Lewis Jones
Z:vmp.Simon Wilson 2013 www.village-music-project.org.uk
Z:Dance added by John Chambers 2017
M:2/4
L:1/8
%Q:1/2=100
K:C
|:\
G2E>G | G2E>G | c2e>g | g3g |\
a2f>a | g2e>g | f2d>f | e2dc |\
G2E>G | G2E>G |
c2e>g | g4 |\
f2d>f | e2c>e | dcdB | c4 :|\
|:\
e2c>e | A2Bc | dedc | B2AG |\
d2B>d |
g2A>e | dcBA | G3A |\
G2E>G | g2e>g | F2D>F | f2d>f |\
e2c>e | A2f>e | dcdB | c4 :|
W:  First Cu. foot it and cast off, that again
W:below the 3d the same again to the top :| 1st
W:Man foot to th 2d Man his Partner ye same
W:cross over and turn proper | hands round with
W:the 3d Cu. and Right and Left at top :|:
W:
T:Milk Sop. JJo8.160, The
B:J.Johnson Choice Collection Vol 8 1758
Z:vmp.Simon Wilson 2013 www.village-music-project.org.uk
Z:Dance added by John Chambers 2017
M:C|
L:1/4
%Q:1/2=100
K:Dm
|: a |\
fed^c | d/e/f2a | gfed | ^c/d/e2a |\
A2BA | G2AG | FG/A/GF | EA,A, :|
|: c |\
{B}A2GF | A/B/c2f | cAGF | E/F/G2A |\
BAge | ^cdGB | AGFE | D3 :|
W: First Cu. lead thro' the 2d
W:cast up and turn .| 2d Cu.
W:the same :| lead down up
W:again, cast off and Right
W:and Left :|:
W:
